src/lib/packages/icons/src/assets/line/folder-download.svg

<svg width="24" height="24" viewBox="0 0 24 24" fill="none" xmlns="http://www.w3.org/2000/svg">
<path d="M18 6.25H13.311L10.531 3.47C10.39 3.329 10.2 3.25 10.001 3.25H6.00098C3.58298 3.25 2.25098 4.582 2.25098 7V17C2.25098 19.418 3.58298 20.75 6.00098 20.75H18.001C20.419 20.75 21.751 19.418 21.751 17V10C21.75 7.582 20.418 6.25 18 6.25ZM20.25 17C20.25 18.577 19.577 19.25 18 19.25H6C4.423 19.25 3.75 18.577 3.75 17V7C3.75 5.423 4.423 4.75 6 4.75H9.68896L12.469 7.53C12.61 7.671 12.8 7.75 12.999 7.75H17.999C19.576 7.75 20.249 8.423 20.249 10V17H20.25ZM12.03 13.47C12.323 13.763 12.323 14.238 12.03 14.531L10.03 16.531C9.96103 16.6 9.87789 16.655 9.78589 16.693C9.69389 16.731 9.59702 16.751 9.49902 16.751C9.40102 16.751 9.30391 16.731 9.21191 16.693C9.11991 16.655 9.03702 16.6 8.96802 16.531L6.96802 14.531C6.67502 14.238 6.67502 13.763 6.96802 13.47C7.26102 13.177 7.73605 13.177 8.02905 13.47L8.74902 14.19V11C8.74902 10.586 9.08502 10.25 9.49902 10.25C9.91302 10.25 10.249 10.586 10.249 11V14.189L10.969 13.469C11.263 13.177 11.737 13.177 12.03 13.47Z" fill="currentColor"/>
</svg>

<svg xmlns="http://www.w3.org/2000/svg" width="24" height="24" fill="none"><path fill="currentColor" d="M18 6.25h-4.689l-2.78-2.78a.749.749 0 0 0-.53-.22h-4c-2.418 0-3.75 1.332-3.75 3.75v10c0 2.418 1.332 3.75 3.75 3.75h12c2.418 0 3.75-1.332 3.75-3.75v-7C21.75 7.582 20.418 6.25 18 6.25ZM20.25 17c0 1.577-.673 2.25-2.25 2.25H6c-1.577 0-2.25-.673-2.25-2.25V7c0-1.577.673-2.25 2.25-2.25h3.689l2.78 2.78c.141.141.331.22.53.22h5c1.577 0 2.25.673 2.25 2.25v7h.001Zm-8.22-3.53a.75.75 0 0 1 0 1.061l-2 2a.75.75 0 0 1-.818.162.748.748 0 0 1-.244-.162l-2-2a.75.75 0 1 1 1.061-1.061l.72.72V11a.75.75 0 0 1 1.5 0v3.189l.72-.72a.751.751 0 0 1 1.061.001Z"/></svg>
